packages/foundations/assets/icons/functional/images/social/heart_20_filled.svg

<svg width="20" height="20" viewBox="0 0 20 20" fill="none" xmlns="http://www.w3.org/2000/svg">
<g clip-path="url(#clip0_2214_6225)">
<path fill-rule="evenodd" clip-rule="evenodd" d="M8.85708 16.2694L3.30613 10.8817C2.41138 10.0133 2 8.85709 2 7.71427C2 5.26533 3.9918 3.24072 6.44085 3.24072C7.58366 3.24072 8.74267 3.68146 9.60816 4.54685L10 4.93869L10.2938 4.67747C11.2432 3.83371 12.351 3.27343 13.5592 3.27343C15.9756 3.27343 18 5.10003 18 7.48575C18 8.75918 17.6387 9.96468 16.6939 10.8817L11.1429 16.2694C10.8446 16.5589 10.4244 16.7593 10 16.7593C9.57556 16.7593 9.1554 16.5589 8.85708 16.2694Z" fill="#1A1C1F"/>
</g>
<defs>
<clipPath id="clip0_2214_6225">
<rect width="20" height="20" fill="white"/>
</clipPath>
</defs>
</svg>

<svg xmlns="http://www.w3.org/2000/svg" width="20" height="20" fill="none"><g clip-path="url(#a)"><path fill="#1A1C1F" fill-rule="evenodd" d="m8.857 16.27-5.55-5.388C2.41 10.013 2 8.857 2 7.714c0-2.449 1.992-4.473 4.44-4.473 1.144 0 2.303.44 3.168 1.306l.392.392.294-.262c.95-.843 2.057-1.404 3.265-1.404C15.976 3.273 18 5.1 18 7.486c0 1.273-.361 2.479-1.306 3.396l-5.551 5.387c-.298.29-.719.49-1.143.49s-.845-.2-1.143-.49" clip-rule="evenodd"/></g><defs><clipPath id="a"><path fill="#fff" d="M0 0h20v20H0z"/></clipPath></defs></svg>
